src/images/Modus-Labs-Logo.svg

<?xml version="1.0" encoding="UTF-8"?>
<svg width="155px" height="24px" viewBox="0 0 155 24" version="1.1" xmlns="http://www.w3.org/2000/svg">
    <!-- Generator: Sketch 50.2 (55047) - http://www.bohemiancoding.com/sketch -->
    <title>Modus-Labs-Logo</title>
    <desc>Created with Sketch.</desc>
    <defs></defs>
    <g id="Modus-Labs-Logo" stroke="none" stroke-width="1" fill="none" fill-rule="evenodd">
        <path d="M7.4337879,12.2456644 C7.4337879,13.1911856 7.25662304,14.0947944 6.93457719,14.9263591 C3.24118816,13.0601244 0.7079798,9.23261567 0.7079798,4.81187652 C0.7079798,3.47430444 0.940537005,2.19133177 1.36611782,1 C2.4521022,1.13060811 3.49051033,1.41515935 4.45959308,1.83088509 C4.09586138,2.75431731 3.8938889,3.75919552 3.8938889,4.81187652 C3.8938889,7.58319265 5.27971688,10.0292912 7.39504725,11.4993971 C7.41962831,11.7449811 7.4337879,11.9935103 7.4337879,12.2456644 Z M5.1016458,2.12970921 C8.79503482,3.99605724 11.3276768,7.82492527 11.3276768,12.2456644 C11.3276768,18.501827 6.25616262,23.5733412 0,23.5733412 L0,20.3874321 C4.49663458,20.3874321 8.1417677,16.7421857 8.1417677,12.2456644 C8.1417677,9.47366863 6.75537334,7.02666389 4.63925003,5.55633144 C4.61489553,5.31142707 4.6018687,5.06323767 4.6018687,4.81187652 C4.6018687,3.86601551 4.7793734,2.96184035 5.1016458,2.12970921 Z M16.783086,15.8742591 C18.117373,18.5490635 20.8789473,20.3874321 24.0713132,20.3874321 L24.0713132,23.5733412 C19.4108804,23.5733412 15.4084724,20.7585268 13.6695607,16.7366352 C14.7607558,16.5885824 15.8052809,16.2945159 16.783086,15.8742591 Z M16.0113313,11.090921 C15.0492717,11.7014828 13.9383665,12.0974984 12.7444293,12.2108885 C12.7619872,6.43286707 17.1049052,1.67331711 22.7056485,1.00022655 C23.0592986,1.98958585 23.27679,3.04328634 23.3411312,4.1381063 C19.5701476,4.47351881 16.5385214,7.37850153 16.0113313,11.090921 Z M20.0942792,5.96786594 C21.0566786,5.35651122 22.168037,4.95936287 23.3628803,4.84619938 C23.3444162,11.0865033 18.280265,16.1395533 12.0356566,16.1395533 C11.8215635,16.1395533 11.608943,16.1329833 11.3977951,16.1213158 C11.7387582,15.1181367 11.9505858,14.0556006 12.0144738,12.9530778 C12.021497,12.9530778 12.0285202,12.9536442 12.0356566,12.9536442 C16.1395606,12.9536442 19.5327662,9.91669407 20.0942792,5.96786594 Z M45.6004692,10.7722735 L42.5347467,17.9095028 L41.0261267,17.9095028 L37.9766029,10.7722735 L37.9766029,17.9095028 L35.4462264,17.9095028 L35.4462264,6.57095145 L38.8687707,6.57095145 L41.7885927,13.7406912 L44.7246132,6.57095145 L48.1309589,6.57095145 L48.1309589,17.9095028 L45.6004692,17.9095028 L45.6004692,10.7722735 Z M61.9437014,16.5382875 C60.7291479,17.6884999 59.2341212,18.2634927 57.4582813,18.2634927 C55.6822148,18.2634927 54.1870748,17.6884999 52.9728611,16.5382875 C51.7583076,15.387962 51.1511441,13.9572764 51.1511441,12.2456644 C51.1511441,10.5343923 51.7583076,9.10348015 52.9728611,7.95315458 C54.1870748,6.80294227 55.6822148,6.22783612 57.4582813,6.22783612 C59.2341212,6.22783612 60.7291479,6.80294227 61.9437014,7.95315458 C63.1579151,9.10348015 63.7654184,10.5343923 63.7654184,12.2456644 C63.7654184,13.9572764 63.1579151,15.387962 61.9437014,16.5382875 Z M61.032843,12.2540469 C61.032843,11.2149591 60.6891612,10.3286817 60.0016845,9.59510133 C59.3143211,8.86163425 58.4692764,8.49495736 57.466777,8.49495736 C56.4641643,8.49495736 55.6193462,8.86163425 54.9320961,9.59510133 C54.2445061,10.3286817 53.9009376,11.2149591 53.9009376,12.2540469 C53.9009376,13.293248 54.2445061,14.1768068 54.9320961,14.90461 C55.6193462,15.6325265 56.4641643,15.9963715 57.466777,15.9963715 C58.4692764,15.9963715 59.3143211,15.6325265 60.0016845,14.90461 C60.6891612,14.1768068 61.032843,13.293248 61.032843,12.2540469 Z M75.4947747,8.05521694 C76.6112305,9.04468951 77.1697982,10.4210022 77.1697982,12.1834755 C77.1697982,13.9462885 76.6252768,15.3412919 75.5365738,16.3684857 C74.4478708,17.3960192 72.7867802,17.9095028 70.5534155,17.9095028 L66.5501012,17.9095028 L66.5501012,6.57095145 L70.6873086,6.57095145 C72.7754526,6.57095145 74.377979,7.06574437 75.4947747,8.05521694 Z M73.5768857,14.7950714 C74.2188251,14.2111296 74.5399648,13.3622335 74.5399648,12.2482698 C74.5399648,11.1346459 74.2188251,10.2774806 73.5768857,9.67734026 C72.9344931,9.07708667 71.9490985,8.77712979 70.6204753,8.77712979 L69.1631697,8.77712979 L69.1631697,15.6709273 L70.821315,15.6709273 C72.0162717,15.6709273 72.9344931,15.3790131 73.5768857,14.7950714 Z M83.2438118,15.2328861 C83.6761892,15.7575841 84.2579787,16.0195932 84.9895201,16.0195932 C85.7210614,16.0195932 86.3002456,15.7575841 86.7269591,15.2328861 C87.1535594,14.7085279 87.3670862,13.9920524 87.3670862,13.0835727 L87.3670862,6.58182602 L89.960671,6.58182602 L89.960671,13.1646788 C89.960671,14.8086646 89.4952168,16.0711342 88.5640818,16.9524274 C87.63306,17.8338339 86.4415017,18.2743673 84.9895201,18.2743673 C83.5373119,18.2743673 82.3432615,17.8311153 81.4065759,16.9442715 C80.4698903,16.0576542 80.0017174,14.7976767 80.0017174,13.1646788 L80.0017174,6.58182602 L82.5953023,6.58182602 L82.5953023,13.0835727 C82.5953023,13.9920524 82.8116609,14.7085279 83.2438118,15.2328861 Z M96.3149313,8.79480096 C96.0674216,9.00028502 95.9436101,9.27214926 95.9436101,9.61050697 C95.9436101,9.9492045 96.0947213,10.2181236 96.3973968,10.4179438 C96.6997325,10.6175374 97.3980838,10.8534929 98.4926772,11.1253572 C99.5869308,11.397448 100.43662,11.8052443 101.041631,12.3488596 C101.646416,12.8928146 101.949091,13.6864316 101.949091,14.7293708 C101.949091,15.7727631 101.561345,16.6187141 100.785852,17.2680165 C100.010586,17.9172056 98.9901888,18.2419701 97.7255669,18.2419701 C95.8996587,18.2419701 94.2552199,17.5593643 92.7925902,16.194266 L94.3269241,14.2965403 C95.5697968,15.395325 96.7191028,15.9444907 97.7750689,15.9444907 C98.2478861,15.9444907 98.6190941,15.8422018 98.8885795,15.6367178 C99.1580649,15.4314602 99.2928643,15.1538189 99.2928643,14.8043601 C99.2928643,14.454788 99.1497957,14.1774864 98.8638852,13.9718891 C98.5777481,13.7668581 98.0114775,13.5587687 97.1646204,13.3477341 C95.8225172,13.0259148 94.8408608,12.606904 94.2197642,12.0909284 C93.5981013,11.5748394 93.2874964,10.7647972 93.2874964,9.66046202 C93.2874964,8.55635337 93.6806801,7.70439879 94.4670474,7.10516469 C95.2534147,6.50593059 96.2350712,6.20620026 97.4121301,6.20620026 C98.1818458,6.20620026 98.9519012,6.33941374 99.7218434,6.60572742 C100.491672,6.87215438 101.162611,7.24947929 101.734545,7.73781544 L100.431296,9.63554113 C99.430269,8.86979018 98.3962787,8.48680143 97.3295514,8.48680143 C96.9006855,8.48680143 96.5623278,8.58954346 96.3149313,8.79480096 Z M110.444849,17.9095028 L110.444849,6.58182602 L112.973186,6.58182602 L112.973186,15.6569943 L117.802175,15.6569943 L117.802175,17.9095028 L110.444849,17.9095028 Z M129.202349,17.9095028 L128.148875,15.4601193 L123.395782,15.4601193 L122.341175,17.9095028 L119.648586,17.9095028 L124.547806,6.57095145 L126.99685,6.57095145 L131.894938,17.9095028 L129.202349,17.9095028 Z M125.780258,9.94489999 L124.35297,13.2378556 L127.191686,13.2378556 L125.780258,9.94489999 Z M138.901106,17.9838124 L133.910131,17.9838124 L133.910131,6.58182602 L138.347182,6.58182602 C139.118597,6.58182602 139.784665,6.67425986 140.345385,6.85924083 C140.904972,7.04422179 141.326361,7.29422362 141.609553,7.60947286 C142.120431,8.19669963 142.375304,8.86016166 142.375304,9.5996324 C142.375304,10.4914604 142.087581,11.1546959 141.511002,11.5896787 C141.315034,11.7421492 141.179102,11.8370751 141.103206,11.8751361 C141.027311,11.9133104 140.891379,11.9757259 140.69541,12.0627224 C141.402257,12.2150797 141.965242,12.5330476 142.384366,13.0169659 C142.802358,13.500771 143.01192,14.1017043 143.01192,14.8194259 C143.01192,15.6132695 142.740055,16.3147925 142.196327,16.9236551 C141.565375,17.6305021 140.467723,17.9838124 138.901106,17.9838124 Z M136.454328,15.8306476 L138.199923,15.8306476 C138.928292,15.8306476 139.474286,15.7408191 139.839037,15.5613887 C140.203789,15.3820716 140.386164,15.0288746 140.386164,14.5012314 C140.386164,13.9740413 140.192461,13.6260551 139.806187,13.4571595 C139.419913,13.2888302 138.803688,13.2045523 137.955245,13.2045523 L136.454328,13.2045523 L136.454328,15.8306476 Z M136.454328,11.1980809 L137.661858,11.1980809 C138.368705,11.1980809 138.893176,11.1221854 139.235272,10.9697149 C139.578501,10.8175842 139.749549,10.4885152 139.749549,9.98273443 C139.749549,9.47729349 139.592094,9.14267392 139.276052,8.97966865 C138.961142,8.81666338 138.428742,8.73499083 137.677717,8.73499083 L136.454328,8.73499083 L136.454328,11.1980809 Z M149.365614,8.79480096 C149.11867,9.00028502 148.995199,9.27214926 148.995199,9.61050697 C148.995199,9.9492045 149.145857,10.2181236 149.448306,10.4179438 C149.750755,10.6175374 150.449672,10.8534929 151.543926,11.1253572 C152.638179,11.397448 153.487755,11.8052443 154.092653,12.3488596 C154.697551,12.8928146 155,13.6864316 155,14.7293708 C155,15.7727631 154.612593,16.6187141 153.83778,17.2680165 C153.061834,17.9172056 152.041211,18.2419701 150.777042,18.2419701 C148.951021,18.2419701 147.306242,17.5593643 145.843839,16.194266 L147.377606,14.2965403 C148.621385,15.395325 149.770012,15.9444907 150.826884,15.9444907 C151.299248,15.9444907 151.670796,15.8422018 151.940394,15.6367178 C152.20886,15.4314602 152.34366,15.1538189 152.34366,14.8043601 C152.34366,14.454788 152.200931,14.1774864 151.915474,13.9718891 C151.628883,13.7668581 151.0625,13.5587687 150.216322,13.3477341 C148.873992,13.0259148 147.891883,12.606904 147.271126,12.0909284 C146.649237,11.5748394 146.338858,10.7647972 146.338858,9.66046202 C146.338858,8.55635337 146.731929,7.70439879 147.518069,7.10516469 C148.30421,6.50593059 149.28632,6.20620026 150.463265,6.20620026 C151.233547,6.20620026 152.002697,6.33941374 152.772979,6.60572742 C153.543261,6.87215438 154.213859,7.24947929 154.785907,7.73781544 L153.482091,9.63554113 C152.481857,8.86979018 151.447641,8.48680143 150.380573,8.48680143 C149.952387,8.48680143 149.61369,8.58954346 149.365614,8.79480096 Z" id="Modus-Labs" fill="#1B1B1B"></path>
    </g>
</svg>

<svg viewBox="0 0 155 24" xmlns="http://www.w3.org/2000/svg">
  <path d="M7.434 12.246c0 .945-.177 1.849-.5 2.68A11.325 11.325 0 0 1 .709 4.812c0-1.338.233-2.62.658-3.812 1.086.13 2.125.415 3.094.83A8.129 8.129 0 0 0 7.395 11.5c.025.246.039.495.039.747zM5.102 2.13a11.327 11.327 0 0 1 6.226 10.116c0 6.256-5.072 11.327-11.328 11.327v-3.186a8.142 8.142 0 0 0 4.64-14.83 7.41 7.41 0 0 1 .462-3.427zm11.681 13.744a8.14 8.14 0 0 0 7.288 4.513v3.186c-4.66 0-8.663-2.814-10.401-6.836a11.945 11.945 0 0 0 3.113-.863zm-.772-4.783a7.39 7.39 0 0 1-3.267 1.12c.018-5.778 4.36-10.538 9.962-11.21.353.989.57 2.042.635 3.137a8.144 8.144 0 0 0-7.33 6.953zm4.083-5.123a7.383 7.383 0 0 1 3.269-1.122c-.019 6.24-5.083 11.294-11.327 11.294-.214 0-.427-.007-.638-.019.34-1.003.553-2.065.616-3.168h.022a8.142 8.142 0 0 0 8.058-6.985zM45.6 10.772l-3.065 7.138h-1.509l-3.05-7.138v7.138h-2.53V6.57h3.423l2.92 7.17 2.936-7.17h3.406V17.91h-2.53v-7.138zm16.344 5.766c-1.215 1.15-2.71 1.725-4.486 1.725-1.776 0-3.27-.575-4.485-1.725-1.215-1.15-1.822-2.58-1.822-4.292 0-1.712.607-3.143 1.822-4.293 1.214-1.15 2.71-1.725 4.485-1.725 1.776 0 3.271.575 4.486 1.725 1.214 1.15 1.821 2.581 1.821 4.293 0 1.711-.607 3.142-1.821 4.292zm-.911-4.284c0-1.039-.344-1.925-1.031-2.659-.688-.733-1.533-1.1-2.535-1.1-1.003 0-1.848.367-2.535 1.1-.687.734-1.031 1.62-1.031 2.659 0 1.04.344 1.923 1.031 2.65.687.729 1.532 1.092 2.535 1.092 1.002 0 1.847-.363 2.535-1.091.687-.728 1.03-1.612 1.03-2.651zm14.462-4.199c1.116.99 1.675 2.366 1.675 4.128 0 1.763-.545 3.158-1.633 4.185-1.09 1.028-2.75 1.542-4.984 1.542H66.55V6.57h4.137c2.088 0 3.691.495 4.808 1.484zm-1.918 6.74c.642-.584.963-1.433.963-2.547 0-1.113-.321-1.97-.963-2.57-.643-.6-1.628-.9-2.957-.9h-1.457v6.893h1.658c1.195 0 2.113-.292 2.756-.876zm9.667.438c.432.525 1.014.787 1.746.787.731 0 1.31-.262 1.737-.787.427-.524.64-1.24.64-2.15V6.583h2.594v6.583c0 1.644-.466 2.906-1.397 3.787-.93.882-2.122 1.322-3.574 1.322-1.453 0-2.647-.443-3.583-1.33-.937-.886-1.405-2.146-1.405-3.78V6.583h2.593v6.502c0 .908.217 1.625.649 2.149zm13.07-6.438a1.008 1.008 0 0 0-.37.816c0 .338.15.607.453.807.303.2 1.001.435 2.096.707 1.094.272 1.944.68 2.549 1.224.604.544.907 1.337.907 2.38 0 1.044-.388 1.89-1.163 2.539-.775.65-1.796.974-3.06.974-1.826 0-3.47-.683-4.933-2.048l1.534-1.897c1.243 1.098 2.392 1.647 3.448 1.647.473 0 .844-.102 1.114-.307a.992.992 0 0 0 .404-.833.973.973 0 0 0-.43-.832c-.285-.205-.852-.413-1.698-.624-1.342-.322-2.324-.741-2.945-1.257-.622-.516-.933-1.326-.933-2.43 0-1.105.394-1.957 1.18-2.556.786-.6 1.768-.899 2.945-.899.77 0 1.54.133 2.31.4.77.266 1.44.643 2.013 1.132l-1.304 1.898c-1-.766-2.035-1.15-3.101-1.15-.43 0-.768.104-1.015.309zm14.13 9.115V6.582h2.53v9.075h4.828v2.253h-7.357zm18.758 0l-1.053-2.45h-4.753l-1.055 2.45h-2.692l4.899-11.339h2.449l4.898 11.339h-2.693zm-3.422-7.965l-1.427 3.293h2.839l-1.412-3.293zm13.121 8.039h-4.99V6.582h4.436c.772 0 1.438.092 1.998.277.56.185.981.435 1.265.75.51.588.765 1.251.765 1.99 0 .892-.287 1.556-.864 1.99a3.123 3.123 0 0 1-.408.286c-.076.038-.212.1-.408.188.707.152 1.27.47 1.69.954.417.484.627 1.085.627 1.802 0 .794-.272 1.496-.816 2.105-.63.707-1.728 1.06-3.295 1.06zm-2.447-2.153h1.746c.728 0 1.274-.09 1.639-.27.365-.179.547-.532.547-1.06 0-.527-.194-.875-.58-1.044-.386-.168-1.002-.252-1.85-.252h-1.502v2.626zm0-4.633h1.208c.707 0 1.231-.076 1.573-.228.344-.152.515-.481.515-.987s-.158-.84-.474-1.003c-.315-.163-.847-.245-1.598-.245h-1.224v2.463zm12.912-2.403c-.247.205-.37.477-.37.816 0 .338.15.607.452.807.303.2 1.002.435 2.096.707 1.094.272 1.944.68 2.549 1.224.605.544.907 1.337.907 2.38 0 1.044-.387 1.89-1.162 2.539-.776.65-1.797.974-3.061.974-1.826 0-3.47-.683-4.933-2.048l1.534-1.897c1.243 1.098 2.392 1.647 3.449 1.647.472 0 .844-.102 1.113-.307a.994.994 0 0 0 .404-.833.974.974 0 0 0-.429-.832c-.286-.205-.852-.413-1.699-.624-1.342-.322-2.324-.741-2.945-1.257-.622-.516-.932-1.326-.932-2.43 0-1.105.393-1.957 1.18-2.556.785-.6 1.767-.899 2.944-.899.77 0 1.54.133 2.31.4a6.17 6.17 0 0 1 2.013 1.132l-1.304 1.898c-1-.766-2.034-1.15-3.101-1.15-.429 0-.767.104-1.015.309z" fill="#1B1B1B" fill-rule="evenodd"/>
</svg>
